react/assets/icons/phone.svg

<svg role="img" xmlns="http://www.w3.org/2000/svg" width="48px" height="48px" viewBox="0 0 24 24" aria-labelledby="phoneIconTitle" stroke-linecap="square" stroke-linejoin="miter" fill="none"> <title id="phoneIconTitle">Phone</title> <path stroke-linecap="round" d="M12.7407967,18.4035953 L15.8976569,15.246735 L21.114676,18.885324 L19.9443794,20.055614 C19.1648657,20.8351277 18.020623,21.1243165 16.9643502,20.8087683 C13.7351168,19.8440753 10.8342484,18.0754771 8.26174492,15.5029737 C5.6892452,12.930474 3.92064841,10.0296102 2.95595454,6.80038244 C2.64039085,5.74410652 2.92958124,4.59985601 3.70910009,3.82033716 L4.87939464,2.65004261 L8.51798358,7.86706169 L5.36112331,11.023922"/> </svg>

<svg xmlns="http://www.w3.org/2000/svg" width="48" height="48" viewBox="0 0 24 24" aria-labelledby="phoneIconTitle" stroke-linecap="square" fill="none"><path stroke-linecap="round" d="M12.74 18.404l3.158-3.157 5.217 3.638-1.17 1.17a3 3 0 01-2.98.754c-3.23-.965-6.13-2.734-8.703-5.306C5.689 12.93 3.92 10.03 2.956 6.8a3 3 0 01.753-2.98l1.17-1.17 3.639 5.217-3.157 3.157"/></svg>
